packages/katcn/src/icons/svg/layout11-solid.svg

<svg xmlns="http://www.w3.org/2000/svg" fill="none" viewBox="0 0 24 24"><path fill="#000" d="M6.3 2H11v20H6.3C3.9 22 2 20.1 2 17.7V6.3C2 3.9 3.9 2 6.3 2M22 6.3v1.5h-9V2h4.7C20.1 2 22 3.9 22 6.3m0 3.4h-9v4.5h9zm-9 6.6h9v1.5c0 2.3-1.9 4.3-4.3 4.3H13z"/></svg>

<svg width="24" height="24" viewBox="0 0 24 24" fill="none" xmlns="http://www.w3.org/2000/svg">
<path d="M6.3 2H11V22H6.3C3.9 22 2 20.1 2 17.7V6.3C2 3.9 3.9 2 6.3 2Z" fill="black"/>
<path d="M22 6.3V7.8H13V2H17.7C20.1 2 22 3.9 22 6.3Z" fill="black"/>
<path d="M22 9.70001H13V14.2H22V9.70001Z" fill="black"/>
<path d="M13 16.3H22V17.8C22 20.1 20.1 22.1 17.7 22.1H13V16.3Z" fill="black"/>
</svg>
